svgs/my_bsnl_tunes.svg

<svg width="192" height="192" viewBox="0 0 192 192" fill="none" xmlns="http://www.w3.org/2000/svg">
<path d="M77.487 130.447V64.35C77.487 61.9275 78.9479 59.7342 81.1964 58.8329C110.532 47.0738 130.885 44.6848 166.361 46.5846C169.524 46.754 172 49.3811 172 52.5487V139.8C172 140.568 171.864 141.335 171.528 142.026C164.029 157.442 132.476 163.357 121.764 143.33C121.55 142.93 121.387 142.482 121.291 142.039C118.077 127.238 129.64 122.956 151.66 123.691C155.131 123.807 158.079 121.076 158.079 117.602V84.5413C158.079 81.43 155.698 78.8248 152.594 78.6159C128.655 77.0055 114.746 79.6632 94.7755 89.0993C92.7092 90.0756 91.4073 92.1731 91.4073 94.4585V156.76C91.4073 157.133 91.4536 157.507 91.4776 157.878C92.2205 169.39 49.6133 181.114 34.26 161.409C27.5478 150.948 35.7686 138.454 59.1702 137.366C62.8731 136.972 67.0223 136.688 71.6471 136.49C74.8959 136.351 77.487 133.699 77.487 130.447Z" stroke="black" stroke-width="8"/>
<path d="M41.3034 78C38.825 57.2842 51.6298 37 76 37" stroke="black" stroke-width="8" stroke-linecap="round"/>
<path d="M20.4161 80C17.0172 49.6842 34.578 20 68 20" stroke="black" stroke-width="8" stroke-linecap="round"/>
</svg>

<svg xmlns="http://www.w3.org/2000/svg" width="192" height="192" fill="none" viewBox="0 0 192 192"><path stroke="#000" stroke-width="8" d="M77.487 130.447V64.35c0-2.422 1.46-4.616 3.71-5.517 29.335-11.76 49.688-14.148 85.164-12.248 3.163.169 5.639 2.796 5.639 5.964V139.8c0 .768-.136 1.535-.472 2.226-7.499 15.416-39.052 21.331-49.764 1.304a5.04 5.04 0 0 1-.473-1.291c-3.214-14.801 8.349-19.083 30.369-18.348 3.471.116 6.419-2.615 6.419-6.089v-33.06c0-3.112-2.381-5.717-5.485-5.926-23.939-1.61-37.848 1.047-57.819 10.483-2.066.977-3.368 3.074-3.368 5.36v62.301c0 .373.047.747.07 1.118.743 11.512-41.864 23.236-57.217 3.531-6.712-10.461 1.509-22.955 24.91-24.043 3.703-.394 7.852-.678 12.477-.876 3.249-.139 5.84-2.791 5.84-6.043Z"/><path stroke="#000" stroke-linecap="round" stroke-width="8" d="M41.303 78C38.825 57.284 51.63 37 76 37"/><path stroke="#000" stroke-linecap="round" stroke-width="8" d="M20.416 80C17.017 49.684 34.578 20 68 20"/></svg>
